src/img/first-screen/gradient-line-tablet.svg

<svg height="200" viewBox="0 0 768 200" fill="none" xmlns="http://www.w3.org/2000/svg">
<path d="M831.385 0.80977L832.314 33.6776C629.927 49.0166 461.131 126.66 237.266 134.195C166.375 135.852 125.204 128.259 -13.6057 99.8059L-13.6594 97.9064L-10.6416 98.3972C135.083 122.162 176.965 128.352 248.7 123.848C320.185 118.66 385.407 106.505 447.778 91.6083C516.404 75.2097 581.413 55.5145 647.239 38.158C706.871 22.3592 767.194 8.55713 831.385 0.80977Z" fill="url(#paint0_linear_0_2569)"/>
<path d="M792.134 29.6389V200H-7.16992V98.8618L-4.33783 99.4065C132.42 125.767 171.742 132.738 239.495 130.396C307.029 127.401 368.899 117.652 428.047 105.234C490.135 92.2173 549.228 76.2595 608.756 62.0991C611.697 61.391 614.584 60.683 617.525 60.0295C674.166 46.6859 731.407 35.2486 792.134 29.6389Z" fill="white"/>
<defs>
<linearGradient id="paint0_linear_0_2569" x1="-49.3989" y1="83.2185" x2="141.32" y2="-297.756" gradientUnits="userSpaceOnUse">
<stop stop-color="#009EE2"/>
<stop offset="1" stop-color="#273992"/>
</linearGradient>
</defs>
</svg>

<svg xmlns="http://www.w3.org/2000/svg" fill="none" viewBox="0 0 768 200"><path d="m831.385.81.929 32.868C629.927 49.017 461.131 126.66 237.266 134.195c-70.891 1.657-112.062-5.936-250.872-34.39l-.053-1.899 3.017.491c145.725 23.765 187.607 29.955 259.342 25.451 71.485-5.188 136.707-17.343 199.078-32.24 68.626-16.398 133.635-36.094 199.461-53.45C706.871 22.359 767.194 8.558 831.385.81Z" fill="url(#a)"/><path d="M792.134 29.639V200H-7.17V98.862l2.832.544c136.758 26.361 176.08 33.332 243.833 30.99 67.534-2.995 129.404-12.744 188.552-25.162 62.088-13.017 121.181-28.974 180.709-43.135 2.941-.708 5.828-1.416 8.769-2.07 56.641-13.343 113.882-24.78 174.609-30.39Z" fill="#fff"/><defs><linearGradient id="a" x1="-49.399" x2="141.32" y1="83.219" y2="-297.756" gradientUnits="userSpaceOnUse"><stop stop-color="#009EE2"/><stop offset="1" stop-color="#273992"/></linearGradient></defs></svg>
